X: 38956
T: Svirarpolska
R: waltz
M: 3/4
K: Fmajor
G|AA/G/ AA/G/ Ac|Ff/e/ dc AF|E>F GC DE|FD =B,D C2|
D>A, DE FE/D/|GA/=B/ ^c2 Ad/e/|f>e dc AF|~GF/E/ F3:|
|:e|f2 f/e/f/a/ ge|d>e fe/d/ c2|f2 f/e/f/a/ ge|d>e fe/d/ cd/e/|
ff ed cB|cd/e/ f3c|d>c BA GF|~GF/E/ F3:|
|:E|D>A, DF E^C|zD2D C2|D>A, DF E^C|zD2D CD/E/|
F2 FE/F/ GE/C/|zB2A Fd/e/|f>e dc AF|~GF/E/ F3:|

